X:1
T:Alleluja in G
T:harm. Andris Solims 
T:Alleluja in G
T:(Celtic Alleluia)
C:harm. Andris Solims
%%score { ( 1 2 ) | ( 3 4 ) }
L:1/8
Q:1/4=120
M:6/8
K:F
V:1 treble nm="P1"
V:2 treble 
V:3 bass 
V:4 bass 
V:1
!mf!"^Allegro" (C2 F) (F2 G) | (A>G"^-"F)!<(! G3 | (B2 E) (A>!<)!G"^-"F) | (GF"^-"D) C3 | %4
w: Al- * le- *|lu- * * ja,|al- * le- * *|lu- * * ja,|
!f! (C2 F) (F2 G) | (A>G"^-"F) G3 |!ff! (B2 G) (A>G"^-"F) |"^rit." (FG"^-"E) !fermata!F3 |] %8
w: al- * le- *|lu- * * ja,|al- * le- * *|lu- * * ja.|
[K:G][M:6/8]!mf!"^Allegro"[Q:1/4=120] (D2 G) (G2 A) | (B>A"^-"G)!<(! A3 | (c2 F) (B>!<)!A"^-"G) | %11
w: Al- * le- *|lu- * * ja,|al- * le- * *|
 (AG"^-"E) D3 |!f! (D2 G) (G2 A) | (B>A"^-"G) A3 |!ff! (c2 A) (B>A"^-"G) | %15
w: lu- * * ja,|al- * le- *|lu- * * ja,|al- * le- * *|
"^rit." (GA"^-"F) !fermata!G3 |] %16
w: lu- * * ja.|
V:2
 C3 (D2 E) | (F3/2D3/2 D3 | G2 G) (F3/2D3/2 | D3 C3 | C3 C3 | D3 D3 | F2 E) (F>ED) | C3 C3 |] %8
[K:G][M:6/8] D3 (E2 F) | (G3/2E3/2 E3 | A2 A) (G3/2E3/2 | E3 D3 | D3 D3 | E3 E3 | G2 F) (G>FE) | %15
 D3 D3 |] %16
V:3
 A,3 A,2 B, | C>B,A, B,3 | C3 C>B,A, | B,2 =B, C3 | C2 B, A,2 B, | C>B,A, B,3 | D2 B, C>B,A, | %7
 A,B,G, A,3 |][K:G][M:6/8] B,3 B,2 C | D>CB, C3 | D3 D>CB, | C2 ^C D3 | D2 C B,2 C | D>CB, C3 | %14
 E2 C D>CB, | B,CA, B,3 |] %16
V:4
 F,2 E, D,2 ^C, | =C,3 D,3 | E,3 F,3 | G,3 C,3 | A,2 G, F,2 E, | D,3 G,3 | B,,3 C,3 | %7
 C,3 !fermata!F,3 |][K:G][M:6/8] G,2 F, E,2 ^D, | =D,3 E,3 | F,3 G,3 | A,3 D,3 | B,2 A, G,2 F, | %13
 E,3 A,3 | C,3 D,3 | D,3 !fermata!G,3 |] %16

